src/topics/icons/shogun.svg

<svg height="121" preserveAspectRatio="xMidYMid" viewBox="0 0 256 121" width="256" xmlns="http://www.w3.org/2000/svg"><path d="m128.162 0-45.315 34.012-7.888-9.783-63.132-12.2 46.942 40.055-58.769 44.111 127.805 24.743.355.07 127.84-24.813-58.678-44.154 47.379-40.428-63.13 12.199-8.218 10.193zm-42.961 36.931 41.086-30.838v51.487l-17.274 8.883zm44.833 20.861v-51.694l40.965 30.825-23.884 29.622zm20.815 10.092 32.778-40.653 47.83-9.243-66.716 56.927zm-125.776-49.479 47.829 9.243 32.708 40.566-13.83 7.112zm142.789 58.773 26.539-22.646 39.435 29.674-43.063 4.713zm-145.935 7.244 39.764-29.846 26.487 22.602-23.061 11.858zm49.974 5.339 20.27-10.423 19.333-9.785-.09-.111 14.873-7.649v33.778zm58.133-27.758 53.968 27.657-53.968 5.906zm0 37.333 108.176-11.839 8.802 6.624-116.978 22.705zm-121.029-5.215 8.528-6.401 108.754 11.619v17.488z" fill="#26a6ff"/></svg>

<?xml version="1.0" encoding="UTF-8" standalone="no"?>
<svg width="256px" height="121px" viewBox="0 0 256 121" version="1.1" xmlns="http://www.w3.org/2000/svg" xmlns:xlink="http://www.w3.org/1999/xlink" preserveAspectRatio="xMidYMid">
    <g>
        <path d="M128.162,0 L82.847,34.012 L74.959,24.229 L11.827,12.029 L58.769,52.084 L0,96.195 L127.805,120.938 L128.16,121.008 L256,96.195 L197.322,52.041 L244.701,11.613 L181.571,23.812 L173.353,34.005 L128.162,0 Z M85.201,36.931 L126.287,6.093 L126.287,57.58 L109.013,66.463 L85.201,36.931 Z M130.034,57.792 L130.034,6.098 L170.999,36.923 L147.115,66.545 L130.034,57.792 Z M150.849,67.884 L183.627,27.231 L231.457,17.988 L164.741,74.915 L150.849,67.884 Z M25.073,18.405 L72.902,27.648 L105.61,68.214 L91.78,75.326 L25.073,18.405 Z M167.862,77.178 L194.401,54.532 L233.836,84.206 L190.773,88.919 L167.862,77.178 Z M21.927,84.422 L61.691,54.576 L88.178,77.178 L65.117,89.036 L21.927,84.422 Z M71.901,89.761 L92.171,79.338 L111.504,69.553 L111.414,69.442 L126.287,61.793 L126.287,95.571 L71.901,89.761 Z M130.034,62.003 L184.002,89.66 L130.034,95.566 L130.034,62.003 Z M130.034,99.336 L238.21,87.497 L247.012,94.121 L130.034,116.826 L130.034,99.336 Z M9.005,94.121 L17.533,87.72 L126.287,99.339 L126.287,116.827 L9.005,94.121 Z" fill="#26A6FF"></path>
    </g>
</svg>
